src/lib/packages/icons/src/assets/line/link-alt.svg

<svg width="24" height="24" viewBox="0 0 24 24" fill="none" xmlns="http://www.w3.org/2000/svg">
<path d="M10.8799 13.87C10.6879 13.87 10.4961 13.797 10.3501 13.65C8.69614 11.995 8.49602 9.43199 9.87602 7.55499C9.98002 7.39399 10.1432 7.19699 10.3492 6.98999L13.709 3.629C14.599 2.739 15.7811 2.24899 17.0391 2.24899C18.2961 2.24899 19.478 2.73899 20.368 3.62799C22.204 5.46499 22.204 8.452 20.368 10.289L18.5281 12.129C18.2351 12.422 17.7601 12.422 17.4671 12.129C17.1741 11.836 17.1741 11.361 17.4671 11.068L19.3069 9.228C20.5579 7.977 20.5579 5.93999 19.3069 4.68799C18.0929 3.47499 15.9811 3.47599 14.7691 4.68799L11.41 8.048C11.279 8.18 11.1809 8.29701 11.1089 8.40601C10.1469 9.71701 10.284 11.461 11.41 12.587C11.703 12.88 11.703 13.355 11.41 13.648C11.264 13.797 11.0709 13.87 10.8799 13.87ZM6.96098 21.75C5.70398 21.75 4.52213 21.26 3.63213 20.371C1.79613 18.534 1.79613 15.547 3.63213 13.71L5.47197 11.87C5.76497 11.577 6.24001 11.577 6.53301 11.87C6.82601 12.163 6.82601 12.638 6.53301 12.931L4.69316 14.771C3.44216 16.022 3.44216 18.059 4.69316 19.311C5.90716 20.524 8.019 20.523 9.231 19.311L12.5901 15.951C12.9361 15.605 13.1942 15.194 13.3392 14.763C13.7652 13.576 13.4761 12.298 12.5901 11.411C12.2971 11.118 12.2971 10.643 12.5901 10.35C12.8841 10.057 13.3589 10.058 13.6509 10.35C14.9319 11.632 15.3661 13.557 14.7562 15.254C14.5442 15.889 14.1589 16.502 13.6509 17.011L10.292 20.371C9.40104 21.26 8.21898 21.75 6.96098 21.75Z" fill="currentColor"/>
</svg>

<svg xmlns="http://www.w3.org/2000/svg" width="24" height="24" fill="none"><path fill="currentColor" d="M10.88 13.87a.744.744 0 0 1-.53-.22 4.666 4.666 0 0 1-.474-6.095 3.69 3.69 0 0 1 .473-.565l3.36-3.361a4.678 4.678 0 0 1 3.33-1.38 4.68 4.68 0 0 1 3.329 1.379 4.716 4.716 0 0 1 0 6.661l-1.84 1.84a.75.75 0 1 1-1.06-1.061l1.839-1.84a3.215 3.215 0 0 0 0-4.54c-1.214-1.213-3.326-1.212-4.538 0l-3.359 3.36a2.39 2.39 0 0 0-.301.358c-.962 1.311-.825 3.055.301 4.181a.75.75 0 0 1-.53 1.283Zm-3.92 7.88a4.68 4.68 0 0 1-3.329-1.379 4.716 4.716 0 0 1 0-6.661l1.84-1.84a.75.75 0 0 1 1.061 1.061l-1.84 1.84a3.215 3.215 0 0 0 0 4.54c1.214 1.213 3.326 1.212 4.538 0l3.36-3.36c.345-.346.603-.757.748-1.188a3.174 3.174 0 0 0-.749-3.352.75.75 0 0 1 1.06-1.061 4.714 4.714 0 0 1 1.106 4.904 4.58 4.58 0 0 1-1.105 1.757l-3.359 3.36A4.685 4.685 0 0 1 6.96 21.75Z"/></svg>
